Komodo/actions/scalable/go-first-symbolic.svg

<?xml version="1.0" encoding="UTF-8" standalone="no"?>
<!-- Created with Inkscape (http://www.inkscape.org/) -->

<svg
   xmlns:dc="http://purl.org/dc/elements/1.1/"
   xmlns:cc="http://creativecommons.org/ns#"
   xmlns:rdf="http://www.w3.org/1999/02/22-rdf-syntax-ns#"
   xmlns:svg="http://www.w3.org/2000/svg"
   xmlns="http://www.w3.org/2000/svg"
   xmlns:xlink="http://www.w3.org/1999/xlink"
   xmlns:sodipodi="http://sodipodi.sourceforge.net/DTD/sodipodi-0.dtd"
   xmlns:inkscape="http://www.inkscape.org/namespaces/inkscape"
   width="16"
   height="16"
   id="svg2"
   sodipodi:version="0.32"
   inkscape:version="0.48.1 r9760"
   version="1.0"
   sodipodi:docname="go-first.svg"
   inkscape:output_extension="org.inkscape.output.svg.inkscape">
  <defs
     id="defs4">
    <inkscape:perspective
       sodipodi:type="inkscape:persp3d"
       inkscape:vp_x="0 : 8 : 1"
       inkscape:vp_y="0 : 1000 : 0"
       inkscape:vp_z="16 : 8 : 1"
       inkscape:persp3d-origin="8 : 5.3333333 : 1"
       id="perspective18" />
    <linearGradient
       id="StandardGradient"
       gradientTransform="matrix(-1.0923124,0,0,0.915489,16.03125,0)"
       x1="7.6386113"
       y1="3.2598698"
       x2="7.6386113"
       y2="14.22356"
       gradientUnits="userSpaceOnUse">
      <stop
         id="stop3284"
         offset="0"
         style="stop-color:#000000;stop-opacity:0.86274511;" />
      <stop
         id="stop3286"
         offset="1"
         style="stop-color:#000000;stop-opacity:0.47058824;" />
    </linearGradient>
    <inkscape:perspective
       id="perspective3648"
       inkscape:persp3d-origin="0.5 : 0.33333333 : 1"
       inkscape:vp_z="1 : 0.5 : 1"
       inkscape:vp_y="0 : 1000 : 0"
       inkscape:vp_x="0 : 0.5 : 1"
       sodipodi:type="inkscape:persp3d" />
    <linearGradient
       inkscape:collect="always"
       xlink:href="#StandardGradient"
       id="linearGradient3626"
       gradientUnits="userSpaceOnUse"
       gradientTransform="matrix(-1.0923124,0,0,0.915489,-3.96875,0)"
       x1="7.6386113"
       y1="3.2598698"
       x2="7.6386113"
       y2="14.22356" />
    <clipPath
       clipPathUnits="userSpaceOnUse"
       id="clipPath3633">
      <path
         style="fill:#ff00ff;fill-opacity:1;stroke:none;display:inline"
         d="m -20,0 0,16 16,0 0,-16 -16,0 z m 10.03125,3 0,2.96875 3.96875,0 0,4.0625 -3.96875,0 0,2.96875 -8,-5 8,-5 z"
         id="path3635" />
    </clipPath>
    <linearGradient
       inkscape:collect="always"
       xlink:href="#StandardGradient"
       id="linearGradient2854"
       gradientUnits="userSpaceOnUse"
       gradientTransform="matrix(-1.0923124,0,0,0.915489,-2.96875,0)"
       x1="7.6386113"
       y1="3.2598698"
       x2="7.6386113"
       y2="14.22356" />
    <clipPath
       clipPathUnits="userSpaceOnUse"
       id="clipPath2861">
      <path
         style="fill:#ff00ff;fill-opacity:1;stroke:none;display:inline"
         d="m -20,0 0,16 16,0 0,-16 -16,0 z m 1,3 2,0 0,10 -2,0 0,-10 z m 10.03125,0 0,2.96875 3.96875,0 0,4.0625 -3.96875,0 0,2.96875 -8,-5 8,-5 z"
         id="path2863" />
    </clipPath>
    <linearGradient
       inkscape:collect="always"
       xlink:href="#StandardGradient"
       id="linearGradient3955"
       gradientUnits="userSpaceOnUse"
       gradientTransform="matrix(-1.0923124,0,0,0.915489,17.03125,0)"
       x1="7.6386113"
       y1="3.2598698"
       x2="7.6386113"
       y2="14.22356" />
    <linearGradient
       inkscape:collect="always"
       xlink:href="#StandardGradient"
       id="linearGradient3959"
       gradientUnits="userSpaceOnUse"
       gradientTransform="matrix(-1.0923124,0,0,0.915489,17.03125,0)"
       x1="7.6386113"
       y1="3.2598698"
       x2="7.6386113"
       y2="14.22356" />
  </defs>
  <sodipodi:namedview
     id="base"
     pagecolor="#ffffff"
     bordercolor="#9a9a9a"
     borderopacity="1"
     inkscape:pageopacity="0.0"
     inkscape:pageshadow="2"
     inkscape:zoom="12.467062"
     inkscape:cx="-41.728173"
     inkscape:cy="-4.1046579"
     inkscape:document-units="px"
     inkscape:current-layer="layer4"
     showgrid="true"
     inkscape:showpageshadow="false"
     showguides="true"
     inkscape:guide-bbox="true"
     inkscape:window-width="1920"
     inkscape:window-height="1028"
     inkscape:window-x="0"
     inkscape:window-y="25"
     inkscape:window-maximized="1">
    <sodipodi:guide
       orientation="1,0"
       position="0,112"
       id="guide2383" />
    <sodipodi:guide
       orientation="0,1"
       position="26.278146,128"
       id="guide2385" />
    <sodipodi:guide
       orientation="1,0"
       position="128,54.082119"
       id="guide2387" />
    <sodipodi:guide
       orientation="0,1"
       position="78.156291,0"
       id="guide2389" />
    <inkscape:grid
       type="xygrid"
       id="grid3672"
       visible="true"
       enabled="true" />
  </sodipodi:namedview>
  <metadata
     id="metadata7">
    <rdf:RDF>
      <cc:Work
         rdf:about="">
        <dc:format>image/svg+xml</dc:format>
        <dc:type
           rdf:resource="http://purl.org/dc/dcmitype/StillImage" />
      </cc:Work>
    </rdf:RDF>
  </metadata>
  <g
     inkscape:groupmode="layer"
     id="layer4"
     inkscape:label="Arrow"
     style="display:inline">
    <path
       style="fill:#bebebe;fill-opacity:1;stroke:none;display:inline"
       d="M 1 3 L 1 13 L 3 13 L 3 3 L 1 3 z M 11.03125 3 L 3.03125 8 L 11.03125 13 L 11.03125 10.03125 L 15 10.03125 L 15 5.96875 L 11.03125 5.96875 L 11.03125 3 z "
       id="Symbol" />
  </g>
</svg>

<?xml version="1.0" encoding="UTF-8" standalone="no"?>
<!-- Created with Inkscape (http://www.inkscape.org/) -->
<svg id="svg2" xmlns:rdf="http://www.w3.org/1999/02/22-rdf-syntax-ns#" xmlns="http://www.w3.org/2000/svg" height="16" width="16" version="1.0" xmlns:cc="http://creativecommons.org/ns#" xmlns:xlink="http://www.w3.org/1999/xlink" xmlns:dc="http://purl.org/dc/elements/1.1/">
 <metadata id="metadata7">
  <rdf:RDF>
   <cc:Work rdf:about="">
    <dc:format>image/svg+xml</dc:format>
    <dc:type rdf:resource="http://purl.org/dc/dcmitype/StillImage"/>
   </cc:Work>
  </rdf:RDF>
 </metadata>
 <g id="layer4">
  <path id="Symbol" style="fill:#bebebe" d="m1 3v10h2v-10h-2zm10.031 0l-7.9998 5 7.9998 5v-2.969h3.969v-4.0622h-3.969v-2.9688z"/>
 </g>
</svg>
